contributed-vectors/kinolek.svg

<svg xmlns="http://www.w3.org/2000/svg" xml:space="preserve" style="fill-rule:evenodd;clip-rule:evenodd;stroke-linejoin:round;stroke-miterlimit:2" viewBox="0 0 192 192"><path d="M164.5 21.5c0-5.519-4.481-10-10-10h-133c-5.519 0-10 4.481-10 10v133c0 5.519 4.481 10 10 10h133c5.519 0 10-4.481 10-10v-133Z" style="fill:#ffd6d4" transform="translate(8 8)"/><path d="M130.118 149.695c-.896.139-1.806.21-2.724.21H64.606h62.788c.918 0 1.828-.071 2.724-.21Zm-65.755.209h.047-.047Zm-.205-.004h.01-.01Zm-.233-.008.047.002-.025-.001-.022-.001Zm-.212-.009.019.001-.019-.001Zm-.224-.013.046.003-.026-.002-.02-.001Zm-.218-.015.026.002-.026-.002Zm-.217-.018.046.004-.027-.002-.019-.002Zm-.222-.021.032.004-.009-.001-.023-.003Zm-.211-.022.045.005-.027-.003-.018-.002Zm-.225-.027.037.005-.011-.002-.026-.003Zm-.207-.027.046.006-.029-.004-.017-.002Zm-.227-.033.042.006-.013-.002-.029-.004Zm-.202-.032.046.008-.03-.005-.016-.003Zm70.37-.414a17.711 17.711 0 0 1 .208-.059l-.208.059Zm-70.6.375.047.009-.016-.003-.031-.006Zm-.197-.036.046.009-.031-.006-.015-.003Zm-.232-.045.053.011-.019-.004-.034-.007Zm-.194-.04.05.01-.035-.007-.015-.003Zm-.234-.052.061.014-.024-.005-.037-.009Zm-.189-.044.055.013-.04-.009-.015-.004Zm-.236-.058.069.017-.028-.007-.041-.01Zm-.122-.032a17.709 17.709 0 0 1-13.231-17.135V91.67a5.532 5.532 0 0 1 5.532-5.532h87.146a5.536 5.536 0 0 1 5.323 4.018l.006.022c-9.599 27.083-42.086 49.266-84.838 59.135l.062.016Zm84.978-57.801v.03l-.001-.065.001.035Zm-.006-.144.004.085-.004-.085Zm-.009-.139.001.015-.002-.033.001.018Zm-.013-.144.002.018-.002-.018Zm-.015-.135.002.015-.005-.036.003.021Zm-.019-.138.003.021-.005-.029.002.008Zm-.023-.137.003.016-.008-.041.005.025Zm-.026-.136.006.03-.009-.042.003.012Zm-.029-.134.004.018-.013-.052.009.034Zm-.033-.133.01.039-.015-.058.005.019Zm-12.179 58.788a17.712 17.712 0 0 0 8.342-5.657l-.139.168a17.712 17.712 0 0 1-8.41 5.553l.207-.064Zm8.615-5.998c.357-.458.69-.933.999-1.421l-.117.182c-.315.485-.654.956-1.017 1.41l.135-.171Zm1.226-1.791a17.714 17.714 0 0 0 2.512-9.093V91.583 132.194c0 3.303-.922 6.51-2.624 9.279l.112-.186Z" style="fill:#54688c" transform="matrix(.77187 0 0 .77187 21.902 20.423)"/><path d="M144.902 90.178c.133.475.203.975.203 1.492v40.524c0 4.697-1.866 9.202-5.187 12.524a17.715 17.715 0 0 1-12.524 5.187H64.606c-1.547 0-3.073-.202-4.542-.592 42.752-9.869 75.239-32.052 84.838-59.135Z" style="fill:url(#a)" transform="matrix(.77187 0 0 .77187 21.902 20.423)"/><path d="M111.97 73.296 96.696 52.655l-17.938 2.951 15.274 20.64-39.206 6.448a5.5 5.5 0 0 1-6.32-4.534l-1.923-11.689a5.486 5.486 0 0 1 .121-2.342l13.129 17.742 17.938-2.95L62.497 58.28l-11.379 1.872-.091.015.091-.015 86.055-14.154a5.5 5.5 0 0 1 6.319 4.535l1.923 11.688a5.476 5.476 0 0 1-.499 3.335l-13.742-18.571-17.938 2.95 15.274 20.641-16.54 2.72Zm28.98-4.767-.07.012.079-.013-.009.001Zm.07-.013-.037.007.054-.01-.017.003Zm.069-.013-.024.004.051-.01-.027.006Zm.069-.015-.014.003.055-.012-.041.009Zm.139-.032-.076.018.076-.018Zm.066-.016-.053.013.063-.016-.01.003Zm.068-.018-.032.008.05-.013-.018.005Zm.067-.019-.021.006.05-.014-.029.008Zm.066-.019-.011.003.057-.017-.046.014Zm.137-.043-.074.024.074-.024Zm.061-.02-.043.014.055-.018-.012.004Zm.065-.023-.027.01.047-.017-.02.007Zm.065-.023-.018.006.049-.017-.031.011Zm.064-.024-.009.003.061-.023-.052.02Zm.133-.053-.071.029.071-.029Zm.057-.024-.035.015.048-.021-.013.006Zm.063-.027-.023.01.044-.02-.021.01Zm.062-.028-.015.007.047-.022-.032.015Zm.123-.057-.068.032.068-.032Zm.06-.03-.053.026.06-.03-.007.004Zm.06-.031-.029.015.044-.023-.015.008Zm.06-.031-.019.01.042-.023-.023.013Zm.059-.032-.011.006.046-.026-.035.02Zm.119-.068a1.334 1.334 0 0 1-.064.037l.064-.037Zm.056-.033-.039.024.048-.029-.009.005Zm.058-.034-.025.015.04-.025-.015.01Zm.057-.036-.016.01.039-.025-.023.015Zm.056-.036-.009.006.046-.03-.037.024Zm.115-.076-.061.041.061-.041Zm.051-.036-.032.022.042-.029-.01.007Zm.055-.039-.021.015.037-.027-.016.012Zm.053-.039-.013.009.038-.027-.025.018Zm.054-.04-.007.005.048-.036-.041.031Zm.109-.085-.057.045.057-.045Zm.047-.038-.026.021.037-.03-.011.009Zm.052-.042-.018.014.035-.029-.017.015Zm.05-.043-.01.008.036-.031-.026.023Zm.1-.088-.054.048.054-.048Zm.049-.045-.037.034.043-.039-.006.005Zm.048-.045-.022.021.034-.032-.012.011Zm.048-.046-.014.014.032-.031-.018.017Zm.047-.046-.008.008.036-.036-.028.028Zm.095-.096-.051.052.051-.052Zm.044-.046-.03.032.037-.04-.007.008Zm.045-.048-.02.02.032-.035-.012.015Zm.044-.049-.012.013.032-.036-.02.023Zm.044-.05-.007.008.039-.045-.032.037Zm.089-.105-.048.057.048-.057Zm.038-.046-.026.031.035-.042-.009.011Zm.041-.052-.017.021.032-.039-.015.018Zm.041-.052-.011.014.034-.043-.023.029Zm.124-.166a5.38 5.38 0 0 1-.089.121l.044-.06.045-.061Zm.033-.046-.024.033.034-.049-.01.016Zm.037-.055-.016.023.033-.048-.017.025Zm.037-.054-.01.014.037-.055-.027.041Zm.114-.179a5.81 5.81 0 0 1-.083.131l.042-.066.041-.065Zm.027-.045-.022.037.035-.058-.013.021Zm.033-.057-.014.025.034-.059-.02.034ZM46.73 64.035l-.026.094c.017-.063.035-.125.054-.187l-.028.093Zm.059-.186-.03.091c.019-.061.04-.122.061-.182l-.031.091Zm.064-.184-.032.09c.021-.06.043-.12.067-.18l-.035.09Zm.07-.177-.035.086.018-.046.017-.04Zm.039-.092-.037.087c.023-.057.048-.114.074-.171l-.037.084Zm.08-.177-.039.085c.025-.056.051-.111.078-.166l-.039.081Zm.086-.173-.041.081c.027-.054.054-.107.083-.16l-.042.079Zm.092-.169-.043.078c.028-.053.058-.105.088-.157l-.045.079Zm.095-.163-.043.072.016-.028.027-.044Zm.051-.081-.048.076.048-.076Zm.051-.079-.043.067.019-.031.024-.036Zm.056-.083-.05.073.05-.073Zm.052-.074-.045.063.024-.034.021-.029Zm.06-.084-.051.071.051-.071Zm.054-.071-.048.062.029-.038.019-.024Zm.064-.084-.053.069.053-.069Zm.055-.068-.051.064.035-.044.016-.02Zm.069-.082-.056.067c.037-.044.074-.089.113-.132l-.057.065Zm.124-.141-.054.061.016-.019.038-.042Zm.063-.068-.059.064.059-.064Zm.067-.069-.053.055.02-.021.033-.034Zm.07-.07-.061.061.061-.061Zm.066-.064-.053.051.024-.024.029-.027Zm.075-.07-.063.058.063-.058Zm.067-.061-.054.049.028-.026.026-.023Zm.079-.069-.065.056.065-.056Zm.068-.057-.057.047.035-.029.022-.018Zm.083-.068-.067.054.067-.054Zm.069-.054-.061.048.042-.033.019-.015Zm.087-.065-.069.052.069-.052Zm.07-.051-.07.05.054-.039.016-.011Zm.083-.058-.064.045.019-.014.045-.031Zm.079-.054-.072.048.072-.048Zm.081-.052-.062.04.023-.015.039-.025Zm.086-.054-.074.046a2.98 2.98 0 0 1 .074-.046Zm.079-.047-.061.036.028-.017.033-.019Zm.092-.053-.075.043.075-.043Zm.079-.044-.063.035.034-.019.029-.016Zm.096-.05-.077.04.077-.04Zm.08-.041-.066.034.04-.021.026-.013Zm.099-.048-.079.038.079-.038Zm.081-.037-.072.033.05-.023.022-.01Zm.102-.045-.081.036.081-.036Zm.082-.034-.081.034.062-.026.019-.008Zm.096-.038-.074.03.023-.009.051-.021Zm.092-.034-.083.031.083-.031Zm.093-.033-.071.025.027-.01.044-.015Zm.099-.033-.084.028.084-.028Zm.092-.029-.071.022.033-.01.038-.012Zm.104-.03-.085.025.085-.025Zm.091-.025-.072.02.039-.011.033-.009Zm.108-.027-.087.021.087-.021Zm.091-.022-.075.018.046-.011.029-.007Zm.112-.024-.089.019.089-.019Zm.091-.017-.081.015.056-.011.025-.004Z" style="fill:#54688c" transform="matrix(.77187 0 0 .77187 21.902 20.423)"/><path d="m62.497 58.28 15.274 20.641-17.938 2.95-13.129-17.742a5.499 5.499 0 0 1 4.414-3.977l11.379-1.872Zm49.473 15.016-17.938 2.95-15.274-20.64 17.938-2.951 15.274 20.641Zm16.54-2.72-15.274-20.641 17.938-2.95 13.742 18.571a5.49 5.49 0 0 1-4.036 2.985l-12.37 2.035ZM122.957 138.853h-14.626l-12.809-12.808 7.314-7.313 20.121 20.121ZM105.99 94.011h14.298v1.233l-43.729 43.729h-1.271V94.011H86.01v19.98l19.98-19.98Z" style="fill:#fff" transform="matrix(.77187 0 0 .77187 21.902 20.423)"/><defs><linearGradient id="a" x1="0" x2="1" y1="0" y2="0" gradientTransform="rotate(180 72.552 62.802) scale(85.0417)" gradientUnits="userSpaceOnUse"><stop offset="0" style="stop-color:#96dfd3;stop-opacity:1"/><stop offset="1" style="stop-color:#ff837d;stop-opacity:1"/></linearGradient></defs></svg>

<?xml version="1.0" encoding="UTF-8" standalone="no"?>
<!DOCTYPE svg PUBLIC "-//W3C//DTD SVG 1.1//EN" "http://www.w3.org/Graphics/SVG/1.1/DTD/svg11.dtd">
<svg width="100%" height="100%" viewBox="0 0 192 192" version="1.1" xmlns="http://www.w3.org/2000/svg" xmlns:xlink="http://www.w3.org/1999/xlink" xml:space="preserve" xmlns:serif="http://www.serif.com/" style="fill-rule:evenodd;clip-rule:evenodd;stroke-linejoin:round;stroke-miterlimit:2;">
    <g id="Layer1">
        <g transform="matrix(1,0,0,1,8,8)">
            <path d="M164.5,21.5C164.5,15.981 160.019,11.5 154.5,11.5L21.5,11.5C15.981,11.5 11.5,15.981 11.5,21.5L11.5,154.5C11.5,160.019 15.981,164.5 21.5,164.5L154.5,164.5C160.019,164.5 164.5,160.019 164.5,154.5L164.5,21.5Z" style="fill:rgb(255,214,212);"/>
        </g>
        <g transform="matrix(0.771865,0,0,0.771865,21.9016,20.4228)">
            <g>
                <path d="M130.118,149.695C129.222,149.834 128.312,149.905 127.394,149.905C109.616,149.905 82.384,149.905 64.606,149.905C82.384,149.905 109.616,149.905 127.394,149.905C128.312,149.905 129.222,149.834 130.118,149.695ZM64.363,149.904L64.41,149.904L64.386,149.904L64.363,149.904ZM64.158,149.9L64.168,149.9L64.158,149.9ZM63.925,149.892L63.972,149.894L63.947,149.893L63.925,149.892ZM63.713,149.883L63.732,149.884L63.713,149.883ZM63.489,149.87L63.535,149.873L63.509,149.871L63.489,149.87ZM63.271,149.855L63.297,149.857L63.271,149.855ZM63.054,149.837L63.1,149.841L63.073,149.839L63.054,149.837ZM62.832,149.816L62.864,149.82L62.855,149.819L62.832,149.816ZM62.621,149.794L62.666,149.799L62.639,149.796L62.621,149.794ZM62.396,149.767L62.433,149.772L62.422,149.77L62.396,149.767ZM62.189,149.74L62.235,149.746L62.206,149.742L62.189,149.74ZM61.962,149.707L62.004,149.713L61.991,149.711L61.962,149.707ZM61.76,149.675L61.806,149.683L61.776,149.678L61.76,149.675ZM132.13,149.261C131.562,149.418 130.985,149.548 130.401,149.648C131.056,149.535 131.703,149.386 132.338,149.202L132.13,149.261ZM61.53,149.636L61.577,149.645L61.561,149.642L61.53,149.636ZM61.333,149.6L61.379,149.609L61.348,149.603L61.333,149.6ZM61.101,149.555L61.154,149.566L61.135,149.562L61.101,149.555ZM60.907,149.515L60.957,149.525L60.922,149.518L60.907,149.515ZM60.673,149.463L60.734,149.477L60.71,149.472L60.673,149.463ZM60.484,149.419L60.539,149.432L60.499,149.423L60.484,149.419ZM60.248,149.361L60.317,149.378L60.289,149.371L60.248,149.361ZM60.126,149.329C57.108,148.54 54.325,146.961 52.082,144.718C48.761,141.396 46.895,136.891 46.895,132.194C46.895,118.565 46.895,100.6 46.895,91.67C46.895,88.615 49.371,86.138 52.427,86.138C69.672,86.138 122.328,86.138 139.573,86.138C142.103,86.138 144.237,87.837 144.896,90.156L144.902,90.178C135.303,117.261 102.816,139.444 60.064,149.313L60.126,149.329ZM145.104,91.528L145.104,91.558L145.103,91.493L145.104,91.528ZM145.098,91.384C145.1,91.412 145.101,91.441 145.102,91.469L145.098,91.384ZM145.089,91.245L145.09,91.26L145.088,91.227L145.089,91.245ZM145.076,91.101L145.078,91.119L145.076,91.101ZM145.061,90.966L145.063,90.981L145.058,90.945L145.061,90.966ZM145.042,90.828L145.045,90.849L145.04,90.82L145.042,90.828ZM145.019,90.691L145.022,90.707L145.014,90.666L145.019,90.691ZM144.993,90.555L144.999,90.585L144.99,90.543L144.993,90.555ZM144.964,90.421L144.968,90.439L144.955,90.387L144.964,90.421ZM144.931,90.288L144.941,90.327L144.926,90.269L144.931,90.288ZM132.752,149.076C135.43,148.226 137.894,146.742 139.918,144.718C140.333,144.303 140.726,143.869 141.094,143.419L140.955,143.587C140.627,143.977 140.281,144.354 139.918,144.718C137.842,146.794 135.304,148.301 132.545,149.14L132.752,149.076ZM141.367,143.078C141.724,142.62 142.057,142.145 142.366,141.657L142.249,141.839C141.934,142.324 141.595,142.795 141.232,143.249L141.367,143.078ZM142.593,141.287C144.223,138.562 145.105,135.423 145.105,132.194C145.105,118.565 145.105,100.6 145.105,91.67L145.105,91.583C145.105,91.612 145.105,91.641 145.105,91.67C145.105,100.6 145.105,118.565 145.105,132.194C145.105,135.497 144.183,138.704 142.481,141.473L142.593,141.287Z" style="fill:rgb(84,104,140);"/>
                <path d="M144.902,90.178C145.035,90.653 145.105,91.153 145.105,91.67C145.105,100.6 145.105,118.565 145.105,132.194C145.105,136.891 143.239,141.396 139.918,144.718C136.596,148.039 132.091,149.905 127.394,149.905C109.616,149.905 82.384,149.905 64.606,149.905C63.059,149.905 61.533,149.703 60.064,149.313C102.816,139.444 135.303,117.261 144.902,90.178Z" style="fill:url(#_Linear1);"/>
                <g>
                    <path d="M111.97,73.296L96.696,52.655L78.758,55.606L94.032,76.246L54.826,82.694C51.828,83.187 48.999,81.157 48.506,78.16C47.923,74.618 47.166,70.013 46.583,66.471C46.451,65.664 46.501,64.869 46.704,64.129L59.833,81.871L77.771,78.921L62.497,58.28L51.118,60.152L51.027,60.167C51.057,60.162 51.087,60.157 51.118,60.152C68.112,57.357 120.179,48.793 137.173,45.998C140.17,45.505 142.999,47.535 143.492,50.533C144.075,54.074 144.832,58.68 145.415,62.221C145.628,63.516 145.37,64.779 144.767,65.836C144.819,65.744 144.869,65.651 144.916,65.556L131.174,46.985L113.236,49.935L128.51,70.576L111.97,73.296ZM140.95,68.529L140.88,68.541L140.959,68.528L140.95,68.529ZM141.02,68.516L140.983,68.523L141.037,68.513L141.02,68.516ZM141.089,68.503L141.065,68.507L141.116,68.497L141.089,68.503ZM141.158,68.488L141.144,68.491L141.199,68.479L141.158,68.488ZM141.297,68.456C141.272,68.462 141.247,68.468 141.221,68.474L141.297,68.456ZM141.363,68.44L141.31,68.453L141.373,68.437L141.363,68.44ZM141.431,68.422L141.399,68.43L141.449,68.417L141.431,68.422ZM141.498,68.403L141.477,68.409L141.527,68.395L141.498,68.403ZM141.564,68.384L141.553,68.387L141.61,68.37L141.564,68.384ZM141.701,68.341C141.676,68.349 141.652,68.357 141.627,68.365L141.701,68.341ZM141.762,68.321L141.719,68.335L141.774,68.317L141.762,68.321ZM141.827,68.298L141.8,68.308L141.847,68.291L141.827,68.298ZM141.892,68.275L141.874,68.281L141.923,68.264L141.892,68.275ZM141.956,68.251L141.947,68.254L142.008,68.231L141.956,68.251ZM142.089,68.198C142.066,68.208 142.042,68.217 142.018,68.227L142.089,68.198ZM142.146,68.174L142.111,68.189L142.159,68.168L142.146,68.174ZM142.209,68.147L142.186,68.157L142.23,68.137L142.209,68.147ZM142.271,68.119L142.256,68.126L142.303,68.104L142.271,68.119ZM142.394,68.062C142.371,68.072 142.348,68.083 142.326,68.094L142.394,68.062ZM142.454,68.032L142.401,68.058L142.461,68.028L142.454,68.032ZM142.514,68.001L142.485,68.016L142.529,67.993L142.514,68.001ZM142.574,67.97L142.555,67.98L142.597,67.957L142.574,67.97ZM142.633,67.938L142.622,67.944L142.668,67.918L142.633,67.938ZM142.752,67.87C142.731,67.883 142.71,67.895 142.688,67.907L142.752,67.87ZM142.808,67.837L142.769,67.861L142.817,67.832L142.808,67.837ZM142.866,67.803L142.841,67.818L142.881,67.793L142.866,67.803ZM142.923,67.767L142.907,67.777L142.946,67.752L142.923,67.767ZM142.979,67.731L142.97,67.737L143.016,67.707L142.979,67.731ZM143.094,67.655C143.073,67.669 143.053,67.682 143.033,67.696L143.094,67.655ZM143.145,67.619L143.113,67.641L143.155,67.612L143.145,67.619ZM143.2,67.58L143.179,67.595L143.216,67.568L143.2,67.58ZM143.253,67.541L143.24,67.55L143.278,67.523L143.253,67.541ZM143.307,67.501L143.3,67.506L143.348,67.47L143.307,67.501ZM143.416,67.416C143.397,67.431 143.378,67.446 143.359,67.461L143.416,67.416ZM143.463,67.378L143.437,67.399L143.474,67.369L143.463,67.378ZM143.515,67.336L143.497,67.35L143.532,67.321L143.515,67.336ZM143.565,67.293L143.555,67.301L143.591,67.27L143.565,67.293ZM143.665,67.205C143.647,67.221 143.629,67.237 143.611,67.253L143.665,67.205ZM143.714,67.16L143.677,67.194L143.72,67.155L143.714,67.16ZM143.762,67.115L143.74,67.136L143.774,67.104L143.762,67.115ZM143.81,67.069L143.796,67.083L143.828,67.052L143.81,67.069ZM143.857,67.023L143.849,67.031L143.885,66.995L143.857,67.023ZM143.952,66.927C143.935,66.944 143.918,66.962 143.901,66.979L143.952,66.927ZM143.996,66.881L143.966,66.913L144.003,66.873L143.996,66.881ZM144.041,66.833L144.021,66.853L144.053,66.818L144.041,66.833ZM144.085,66.784L144.073,66.797L144.105,66.761L144.085,66.784ZM144.129,66.734L144.122,66.742L144.161,66.697L144.129,66.734ZM144.218,66.629C144.202,66.648 144.186,66.667 144.17,66.686L144.218,66.629ZM144.256,66.583L144.23,66.614L144.265,66.572L144.256,66.583ZM144.297,66.531L144.28,66.552L144.312,66.513L144.297,66.531ZM144.338,66.479L144.327,66.493L144.361,66.45L144.338,66.479ZM144.462,66.313C144.433,66.354 144.403,66.394 144.373,66.434L144.417,66.374L144.462,66.313ZM144.495,66.267L144.471,66.3L144.505,66.251L144.495,66.267ZM144.532,66.212L144.516,66.235L144.549,66.187L144.532,66.212ZM144.569,66.158L144.559,66.172L144.596,66.117L144.569,66.158ZM144.683,65.979C144.656,66.023 144.628,66.067 144.6,66.11L144.642,66.044L144.683,65.979ZM144.71,65.934L144.688,65.971L144.723,65.913L144.71,65.934ZM144.743,65.877L144.729,65.902L144.763,65.843L144.743,65.877ZM46.73,64.035L46.704,64.129C46.721,64.066 46.739,64.004 46.758,63.942L46.73,64.035ZM46.789,63.849L46.759,63.94C46.778,63.879 46.799,63.818 46.82,63.758L46.789,63.849ZM46.853,63.665L46.821,63.755C46.842,63.695 46.864,63.635 46.888,63.575L46.853,63.665ZM46.923,63.488L46.888,63.574L46.906,63.528L46.923,63.488ZM46.962,63.396L46.925,63.483C46.948,63.426 46.973,63.369 46.999,63.312L46.962,63.396ZM47.042,63.219L47.003,63.304C47.028,63.248 47.054,63.193 47.081,63.138L47.042,63.219ZM47.128,63.046L47.087,63.127C47.114,63.073 47.141,63.02 47.17,62.967L47.128,63.046ZM47.22,62.877L47.177,62.955C47.205,62.902 47.235,62.85 47.265,62.798L47.22,62.877ZM47.315,62.714L47.272,62.786L47.288,62.758L47.315,62.714ZM47.366,62.633L47.318,62.709C47.334,62.683 47.35,62.658 47.366,62.633ZM47.417,62.554L47.374,62.621L47.393,62.59L47.417,62.554ZM47.473,62.471L47.423,62.544C47.44,62.52 47.456,62.495 47.473,62.471ZM47.525,62.397L47.48,62.46L47.504,62.426L47.525,62.397ZM47.585,62.313L47.534,62.384C47.551,62.36 47.568,62.336 47.585,62.313ZM47.639,62.242L47.591,62.304L47.62,62.266L47.639,62.242ZM47.703,62.158L47.65,62.227C47.667,62.204 47.685,62.181 47.703,62.158ZM47.758,62.09L47.707,62.154L47.742,62.11L47.758,62.09ZM47.827,62.008L47.771,62.075C47.808,62.031 47.845,61.986 47.884,61.943L47.827,62.008ZM47.951,61.867L47.897,61.928L47.913,61.909L47.951,61.867ZM48.014,61.799L47.955,61.863C47.975,61.841 47.995,61.82 48.014,61.799ZM48.081,61.73L48.028,61.785L48.048,61.764L48.081,61.73ZM48.151,61.66L48.09,61.721C48.11,61.701 48.13,61.68 48.151,61.66ZM48.217,61.596L48.164,61.647L48.188,61.623L48.217,61.596ZM48.292,61.526L48.229,61.584C48.25,61.564 48.271,61.545 48.292,61.526ZM48.359,61.465L48.305,61.514L48.333,61.488L48.359,61.465ZM48.438,61.396L48.373,61.452C48.395,61.433 48.416,61.414 48.438,61.396ZM48.506,61.339L48.449,61.386L48.484,61.357L48.506,61.339ZM48.589,61.271L48.522,61.325C48.544,61.307 48.567,61.289 48.589,61.271ZM48.658,61.217L48.597,61.265L48.639,61.232L48.658,61.217ZM48.745,61.152L48.676,61.204C48.699,61.186 48.722,61.169 48.745,61.152ZM48.815,61.101L48.745,61.151L48.799,61.112L48.815,61.101ZM48.898,61.043L48.834,61.088L48.853,61.074L48.898,61.043ZM48.977,60.989L48.905,61.037C48.929,61.021 48.953,61.005 48.977,60.989ZM49.058,60.937L48.996,60.977L49.019,60.962L49.058,60.937ZM49.144,60.883L49.07,60.929C49.095,60.913 49.119,60.898 49.144,60.883ZM49.223,60.836L49.162,60.872L49.19,60.855L49.223,60.836ZM49.315,60.783L49.24,60.826C49.264,60.812 49.289,60.797 49.315,60.783ZM49.394,60.739L49.331,60.774L49.365,60.755L49.394,60.739ZM49.49,60.689L49.413,60.729C49.438,60.715 49.464,60.702 49.49,60.689ZM49.57,60.648L49.504,60.682L49.544,60.661L49.57,60.648ZM49.669,60.6L49.59,60.638C49.616,60.626 49.643,60.613 49.669,60.6ZM49.75,60.563L49.678,60.596L49.728,60.573L49.75,60.563ZM49.852,60.518L49.771,60.554C49.798,60.542 49.825,60.53 49.852,60.518ZM49.934,60.484L49.853,60.518L49.915,60.492L49.934,60.484ZM50.03,60.446L49.956,60.476L49.979,60.467L50.03,60.446ZM50.122,60.412L50.039,60.443C50.067,60.432 50.095,60.422 50.122,60.412ZM50.215,60.379L50.144,60.404L50.171,60.394L50.215,60.379ZM50.314,60.346L50.23,60.374C50.258,60.364 50.286,60.355 50.314,60.346ZM50.406,60.317L50.335,60.339L50.368,60.329L50.406,60.317ZM50.51,60.287L50.425,60.312C50.453,60.303 50.481,60.295 50.51,60.287ZM50.601,60.262L50.529,60.282L50.568,60.271L50.601,60.262ZM50.709,60.235L50.622,60.256C50.651,60.249 50.68,60.242 50.709,60.235ZM50.8,60.213L50.725,60.231L50.771,60.22L50.8,60.213ZM50.912,60.189L50.823,60.208C50.853,60.202 50.882,60.196 50.912,60.189ZM51.003,60.172L50.922,60.187L50.978,60.176L51.003,60.172Z" style="fill:rgb(84,104,140);"/>
                    <path d="M62.497,58.28L77.771,78.921L59.833,81.871L46.704,64.129C47.254,62.119 48.928,60.512 51.118,60.152L62.497,58.28ZM111.97,73.296L94.032,76.246L78.758,55.606L96.696,52.655L111.97,73.296ZM128.51,70.576L113.236,49.935L131.174,46.985L144.916,65.556C144.156,67.087 142.696,68.243 140.88,68.541L128.51,70.576Z" style="fill:white;"/>
                </g>
            </g>
            <g>
                <path d="M122.957,138.853L108.331,138.853L95.522,126.045L102.836,118.732L122.957,138.853Z" style="fill:white;"/>
                <path d="M105.99,94.011L120.288,94.011L120.288,95.244L76.559,138.973L75.288,138.973L75.288,94.011L86.01,94.011L86.01,113.991L105.99,94.011Z" style="fill:white;"/>
            </g>
        </g>
    </g>
    <defs>
        <linearGradient id="_Linear1" x1="0" y1="0" x2="1" y2="0" gradientUnits="userSpaceOnUse" gradientTransform="matrix(-85.0417,1.04146e-14,-1.04146e-14,-85.0417,145.105,125.604)"><stop offset="0" style="stop-color:rgb(150,223,211);stop-opacity:1"/><stop offset="1" style="stop-color:rgb(255,131,125);stop-opacity:1"/></linearGradient>
    </defs>
</svg>
